X:220
T:Idle Time
C:Mike Compton
N:From "The Nashville Bluegrass Band" Transcribed by Mark Dixon Transcribed by Mike Stangeland
R:bluegrass
L:1/8
Q:1/4=180
M:4/4
K:G
z8 | [e''8a'8d'8g8] | [A2D2] [A2D2] [A2D2] [AD][AD] | d^c =c^A BG AB | [G2G,2] [G2G,2] [G2G,2] [G2G,2] | 
Bc ^cd gd c=c | ^AB GD B,D G,2 | [D2G,2] [=F2G,2] [G2G,2] [D2G,2] | [A2D2] [A2D2] [A2D2] [AD][AD] | 
d^c =c^A BG AB | d2 c2 ^A2 B2 | [G2G,2] [G2G,2] [G2G,2] [G2G,2] | Bc ^cd gd c=c | 
^AB GD FD [B=F][BF] | [B=F][BF] [BF][BF] [cE][cE] [cE][cE] | cd eg ^aa aa | g=f dc ^AB fG | 
B2 c2 d2 c2 | B2 G2 [c2E2] [c2E2] | cd eg ^aa aa | g=f dc ^AB fG | B2 c2 d2 c2 | 
^AB [G2G,2] [G2G,2] z2 | z8 | 


